X:1
T: Gilsland's Hornpipe
C:
R:Reel
Q: 232
K:D
M:4/4
L:1/8
|:FG|A2 A2 A2 FA|Bc dB A2 FG|AF AF AF AF|GA BG E2 FG|
A2 A2 A2 FA|Bc dB A2 d2|cd ef ge dc|1dA FA DE FG:|2d2 d2 d2|
|:de|f2 f2 f2 ef|gf ed cB AG|FA df ed cd|ef gf e2 de|fd fd fd fa|
|1bg ec dc BA|FA df ed cc|dA FA FA de:|
|2gf ed cB AG|FA df ge dc|d2 d2 d2:|
